X:2
T:Dan Hughie MacEachern's March
R:march
C:Jean MacNeil
O:contemporary Cape Breton
B:Victoria Standard http://www.cranfordpub.com/vicstan/
D:Lisa MacArthur
Z:Paul Stewart Cranford (P.S.C.), <http://www.cranfordpub.com>
L:1/8
M:C|
Q:244
K:A
zE|A3 B c3 E|F<DA<F E2 ED|C>EA>B c<Ad<c|B4 B3 E|
A3 B c3 E|F<DA<F E2 ED|C>EA>c d>BG<E|A4 A2:|
|:cd|e>cB<c A>Bc<e|a>fd<f e2 c/d/e|f>de<c d>Bc>A|F2 B2 B2cd|
e>cB<c A>Bc<e|a>fd<f e2 cA|E>Ac<A d>BG<E|A4 A2:|
|:(3AGF|E>Ac<A dA|E>Ac<A B>GE>D|C>EA>B c<Ad<c|[1B4 B2 (3AGF|
E>Ac<A dA|E>Ac<A B>GE>D|C>EA>c d>BG<E|A4 A2:|
[2B4 B2 cd|e2 a2 f2 b2|a>gf<e a2 cA|E>Ac<A d>BG<E|A4 A2|]
